tools/download-figma-icons/icons/outlined-large/doctor.svg

<svg xmlns="http://www.w3.org/2000/svg" width="64" height="64" fill="none" viewBox="0 0 64 64"><path fill="currentColor" fill-rule="evenodd" d="M48 38.5c0 3.584 2.916 6.5 6.5 6.5s6.5-2.916 6.5-6.5-2.916-6.5-6.5-6.5a6.51 6.51 0 0 0-6.5 6.5m-31.512.5-1.918.018.085 1.466c.09 1.537.832 2.516 1.305 2.516h1.08c.473 0 1.215-.98 1.305-2.517l.085-1.467zM6.377 24H3.1c.777 5.949 6.06 12 13.392 12 7.341 0 12.63-6.051 13.408-12h-3.2c-1.003 3.669-4.022 8.999-10.198 9H16.5c-6.17-.002-9.146-5.328-10.123-9m47.059-4.732c1.873 1.982 2.706 5.151 2.609 9.869C60.549 29.879 64 33.789 64 38.5c0 5.238-4.262 9.5-9.5 9.5S45 43.738 45 38.5c0-4.743 3.498-8.674 8.048-9.377.087-3.86-.498-6.425-1.793-7.794C50.41 20.435 49.182 20 47.5 20c-4.07 0-6.5 3.413-6.5 9.129V45.5C41 54.034 37.559 64 27.861 64c-8.47 0-12.477-8.902-12.832-18.144-1.829-.53-3.217-2.583-3.368-5.198l-.143-2.468C4.541 35.865 0 28.888 0 22.5A1.5 1.5 0 0 1 1.5 21H3V7.498C3 4.219 5.646 1.55 8.914 1.504A2.99 2.99 0 0 1 11.5 0a3 3 0 1 1 0 6 2.99 2.99 0 0 1-2.58-1.492A2.997 2.997 0 0 0 6 7.498V21h1.587a1.5 1.5 0 0 1 1.481 1.264c.051.312 1.341 7.734 7.432 7.736h.002c6.111 0 7.465-7.436 7.519-7.752A1.505 1.505 0 0 1 25.5 21H27V7.504A3.01 3.01 0 0 0 23.996 4.5h-.412A2.99 2.99 0 0 1 21 6a3 3 0 1 1 0-6c1.107 0 2.064.607 2.584 1.5h.412A6.01 6.01 0 0 1 30 7.504V21h1.5a1.5 1.5 0 0 1 1.5 1.5c0 7.661-5.403 13.476-11.513 15.604l-.148 2.553c-.15 2.585-1.509 4.615-3.305 5.175.343 9.125 4.2 15.168 9.827 15.168C34.115 61 38 55.061 38 45.5V29.129C38 20.187 42.907 17 47.5 17c2.516 0 4.513.763 5.936 2.268M52 38.5a2.5 2.5 0 1 1 5 0 2.5 2.5 0 0 1-5 0" clip-rule="evenodd"/></svg>

<svg width="64" height="64" viewBox="0 0 64 64" fill="none" xmlns="http://www.w3.org/2000/svg">
<path fill-rule="evenodd" clip-rule="evenodd" d="M48 38.5C48 42.084 50.916 45 54.5 45C58.084 45 61 42.084 61 38.5C61 34.916 58.084 32 54.5 32C50.916 32 48 34.916 48 38.5ZM16.488 39L14.57 39.018L14.655 40.484C14.745 42.021 15.487 43 15.96 43H17.04C17.513 43 18.255 42.02 18.345 40.483L18.43 39.016L16.488 39ZM6.377 24H3.1C3.877 29.949 9.16 36 16.492 36C23.833 36 29.122 29.949 29.9 24H26.7C25.697 27.669 22.678 32.999 16.502 33H16.5C10.33 32.998 7.354 27.672 6.377 24ZM53.436 19.268C55.309 21.25 56.142 24.419 56.045 29.137C60.549 29.879 64 33.789 64 38.5C64 43.738 59.738 48 54.5 48C49.262 48 45 43.738 45 38.5C45 33.757 48.498 29.826 53.048 29.123C53.135 25.263 52.55 22.698 51.255 21.329C50.41 20.435 49.182 20 47.5 20C43.43 20 41 23.413 41 29.129V45.5C41 54.034 37.559 64 27.861 64C19.391 64 15.384 55.098 15.029 45.856C13.2 45.326 11.812 43.273 11.661 40.658L11.518 38.19C4.541 35.865 0 28.888 0 22.5C0 21.672 0.672 21 1.5 21H3V7.498C3 4.219 5.646 1.55 8.914 1.504C9.433 0.609 10.391 0 11.5 0C13.157 0 14.5 1.343 14.5 3C14.5 4.657 13.157 6 11.5 6C10.396 6 9.441 5.396 8.92 4.508C7.304 4.55 6 5.871 6 7.498V21H7.587C8.324 21 8.952 21.536 9.068 22.264C9.119 22.576 10.409 29.998 16.5 30H16.502C22.613 30 23.967 22.564 24.021 22.248C24.146 21.529 24.771 21 25.5 21H27V7.504C27 5.848 25.652 4.5 23.996 4.5H23.584C23.064 5.393 22.107 6 21 6C19.343 6 18 4.657 18 3C18 1.343 19.343 0 21 0C22.107 0 23.064 0.607 23.584 1.5H23.996C27.307 1.5 30 4.193 30 7.504V21H31.5C32.328 21 33 21.672 33 22.5C33 30.161 27.597 35.976 21.487 38.104L21.339 40.657C21.189 43.242 19.83 45.272 18.034 45.832C18.377 54.957 22.234 61 27.861 61C34.115 61 38 55.061 38 45.5V29.129C38 20.187 42.907 17 47.5 17C50.016 17 52.013 17.763 53.436 19.268ZM52 38.5C52 37.119 53.119 36 54.5 36C55.881 36 57 37.119 57 38.5C57 39.881 55.881 41 54.5 41C53.119 41 52 39.881 52 38.5Z" fill="black"/>
</svg>
